X:434
T: IHR FRANZOSEN GEHT NACH HAUS
N: E0356A
O: Europa, Mitteleuropa, Deutschland, Ober - Hessen, Wiesenbreidenbach
R: historisches Lied, Krieg gegen die Franzosen (1813 und 1871)
M: 2/4
L: 1/8
K: F
 | C2C2 | F2CA, | C2G,G, | B,2A,2 |
C2C2 | F2CA, | C2G,G, | B,2A,2 |
A,A,A,C | CG,G,G, |
B,B,B,D | CA,A,A, |
CCCF | FDD
D | CFFA | G2E2 | F2z2

@@@ Tune index: 4084
